X:1
T:Title
%%score { ( 1 3 ) | ( 2 4 ) }
L:1/8
Q:1/4=122
M:6/4
K:Bb
V:1 treble nm="Grand Piano"
V:3 treble 
V:2 bass 
V:4 bass 
V:1
 [DF]2 [Fd]2 [Fd]2 [Fd]2 | [Fc]2 [FB]2 [Gc]2 [GB]2 [EG]2 [DF]2- | [DF]4 [DF]2 [DB]2 [DB]2 [DB]2 | %3
w: Carrol~E.~Marty * * *|||
 [EA]2 [FB]2 c2 c2 d2 c2- | c4 [Fd]2 [Fd]2 [Fd]2 [Fd]2 | %5
w: ||
[M:13/8] [Fc]2 [FB]2 [Gc]2 [GB]2 .[FA]3 z2 |[M:6/4] z _D3 F2 B2 B2 A2 | G2 A2 [DB]2- [DB]6- | %8
w: |||
 [DB]2 z2 [DF]2 [DB]2 [DB]2 [DB]2 | z4 c2- c6- | c4 z2 z6 | z4 [Fd]2- [Fd]6- | [Fd]4 z2 z6 | %13
w: |||||
[M:13/8] [Fc]2 [FB]2 [Gc]2 [B,GB]2 [B,FA]2 [B,G]3- |[M:6/4] [B,G]- [B,_DG]3 F2 B2 B2 A2 | %15
w: ||
 G2 A2 B2- [DB-]2 [EB-]2 [DB]2- | [DB]6 z6 |] %17
w: ||
V:2
 [B,,B,]2 [B,,B,]2 [B,,B,]2 [B,,B,]2 | [C,A,]2 [D,B,]2 [E,B,]2 [E,B,]2 [E,B,]2 [B,,B,]2- | %2
 [B,,B,]4 [B,,B,]2 [B,,F,]2 [B,,F,]2 [B,,F,]2 | %3
 [C,F,]2 [D,B,]2 [F,A,F]2 [F,A,F]2 [F,B,F]2 [F,A,F]2- | %4
 [F,A,F]4 [B,,B,]2 [B,,B,]2 [B,,B,]2 [B,,B,]2 | %5
[M:13/8] [C,A,]2 [D,B,]2 [E,B,]2 [E,B,]2 [E,B,]2 [E,B,E]3- | %6
[M:6/4] [E,B,E]4 [F,B,D]2 [F,B,D]2 [F,B,D]2 [F,CE]2 | [F,CE]2 [F,CE]2 [B,,F,B,]2- [B,,F,B,]6- | %8
 [B,,F,B,]2 z2 [B,,B,]2 [B,,F,]2 [B,,F,]2 [B,,F,]2 | %9
 [C,F,]2 [D,B,]2 [F,A,F]2 [F,A,]2 [G,B,]2 [F,A,]2- | [F,A,]4 [F,A,E]2 [F,A,E]2 [F,A,E]2 [F,A,E]2 | %11
 [F,B,D]2 [F,A,E]2 [B,,B,]2 B,,2 B,,2 B,,2- | B,,4 [B,,B,]2 [B,,B,]2 [B,,B,]2 [B,,B,]2 | %13
[M:13/8] [C,A,]2 [D,B,]2 [E,B,]2 E,2 E,2 E,3- |[M:6/4] E, =E,3 [F,B,D]2 [F,B,D]2 [F,B,D]2 [F,CE]2 | %15
 [F,CE]2 .[F,CE]4 F,2 G,2 F,2- | F,6 z6 |] %17
V:3
 x8 | x12 | x12 | x12 | x12 |[M:13/8] z z z z z z z z z2 G3- |[M:6/4] G4 z2 z6 | x12 | x12 | %9
 [EA]2 .[FB]4 F2 =E2 _E2- | E4 F2 c2 c2 c2 | B2 .c4 B,2 B,2 B,2- | B,4 [DF]2 [Fd]2 [Fd]2 [Fd]2 | %13
[M:13/8] z z z z z z z z z2 E3- |[M:6/4] E6 z6 | z4 [B,D]2 z6 | x12 |] %17
V:4
 x8 | x12 | x12 | x12 | x12 |[M:13/8] x13 |[M:6/4] x12 | x12 | x12 | x12 | x12 | x12 | x12 | %13
[M:13/8] x13 |[M:6/4] x12 | z4 B,,2- B,,6- | B,,6 z6 |] %17

